html/dist/img/reliability.svg

<svg width="68" height="65" viewBox="0 0 68 65" fill="none" xmlns="http://www.w3.org/2000/svg">
<path d="M28.4011 47.6359C28.0911 47.6359 27.7869 47.7623 27.5677 47.9819C27.3484 48.2016 27.2223 48.5052 27.2223 48.817C27.2223 49.1277 27.3484 49.4324 27.5677 49.6521C27.7869 49.8718 28.0911 49.9982 28.4011 49.9982C28.7111 49.9982 29.0152 49.8718 29.2345 49.6521C29.4538 49.4312 29.5799 49.1277 29.5799 48.817C29.5799 48.5052 29.4538 48.2016 29.2345 47.9819C29.0152 47.7623 28.7111 47.6359 28.4011 47.6359Z" fill="#7C7C7D"/>
<path d="M54.4339 37.9469V49.169C54.4339 50.4742 53.3742 51.5348 52.0728 51.5348H4.71878C3.41619 51.5348 2.35762 50.473 2.35762 49.169V46.4701H46.1823C46.833 46.4701 47.3611 45.9409 47.3611 45.2889C47.3611 44.6369 46.833 44.1078 46.1823 44.1078H2.35762V40.7864H11.3555C12.0062 40.7864 12.5343 40.2572 12.5343 39.6052C12.5343 38.9532 12.0062 38.4241 11.3555 38.4241H2.35762V16.5775C2.35762 15.2723 3.41737 14.2116 4.71878 14.2116H31.0982V11.8493H4.71878C2.11714 11.8481 0 13.9695 0 16.5775V49.169C0 51.7758 2.11714 53.8971 4.71878 53.8971H23.4501V57.9131H20.6257C18.2834 57.9131 16.3772 59.823 16.3772 62.1699V63.8188C16.3772 64.4708 16.9053 65 17.556 65H39.2461C39.8969 65 40.425 64.4708 40.425 63.8188V62.1699C40.425 59.823 38.5188 57.9131 36.1765 57.9131H33.3521V53.8971H52.0716C54.6744 53.8971 56.7904 51.7758 56.7904 49.169V37.9469H54.4339ZM25.8077 53.8971H30.9945V57.9131H25.8077V53.8971ZM36.1765 60.2754C37.2186 60.2754 38.0673 61.1246 38.0673 62.1699V62.6377H18.7348V62.1699C18.7348 61.1258 19.5824 60.2754 20.6257 60.2754H36.1765Z" fill="#7C7C7D"/>
<path d="M62.9108 0H34.8928C32.2334 0 30.0703 2.14497 30.0703 4.77894L29.8923 29.0859H24.8352C24.2305 29.0859 23.7389 29.5997 23.7389 30.2304V33.6321C23.7389 36.8425 26.2226 39.5946 29.3512 39.9454V40.0174H53.7679H53.7773C57.2725 39.9974 60.1017 37.1307 60.0828 33.631V12.4269H66.7926C67.3973 12.4269 67.8889 11.9096 67.8889 11.2741V5.03289C67.8936 2.27726 65.6609 0.0200796 62.9108 0ZM60.084 5.04943C60.084 3.5222 61.3677 2.23238 62.8872 2.23238H62.9025C64.4303 2.24773 65.668 3.50566 65.6609 5.0388V10.1933H60.084V5.04943ZM48.547 29.0871H32.1214L32.2994 4.78721C32.2994 3.37928 33.4629 2.23238 34.8928 2.23238H58.7449C58.1602 3.09816 57.8549 4.05844 57.8549 5.05061V33.6321C57.8549 35.9224 56.0242 37.7862 53.7738 37.7862H53.762C51.4869 37.7697 49.6409 35.9011 49.6456 33.6215V30.234C49.6503 29.6127 49.167 29.1083 48.547 29.0871ZM48.9513 37.7862H30.0667C27.807 37.7862 25.968 35.9224 25.968 33.6321V31.3194H47.4188V33.6191C47.4141 35.1416 47.967 36.6346 48.9513 37.7862Z" fill="#7C7C7D"/>
<path d="M40.3943 18.0586L44.0097 20.5355C44.1972 20.6654 44.4164 20.7292 44.6357 20.7292C44.8549 20.7292 45.0742 20.6643 45.2604 20.5355L48.8664 18.0586C50.2327 17.1244 51.2241 15.2298 51.2241 13.5525V8.55036C51.2358 8.12751 51.0013 7.73064 50.6193 7.53693L45.1131 4.82265C44.8066 4.67028 44.44 4.67028 44.1347 4.82146L38.632 7.53103C38.2583 7.72238 38.0237 8.1157 38.0332 8.53619V13.5514C38.0355 15.2298 39.0269 17.1244 40.3943 18.0586ZM40.2635 13.5525V9.22716L44.6298 7.06802L48.9973 9.23307V13.5525C48.9973 14.4821 48.3619 15.6999 47.6098 16.2137L44.6215 18.2618L41.645 16.2137C40.8965 15.7022 40.2635 14.4833 40.2635 13.5525Z" fill="#7C7C7D"/>
<path d="M43.1492 14.9038C43.3555 15.114 43.6431 15.2369 43.9437 15.2381C44.2372 15.2369 44.5249 15.1164 44.73 14.9085L47.5202 12.1116C47.7312 11.9001 47.8467 11.6202 47.8467 11.3214C47.8467 11.0225 47.7312 10.7426 47.5202 10.5323C47.3104 10.3209 47.0298 10.2052 46.7328 10.2052C46.7328 10.2052 46.7328 10.2052 46.7316 10.2052C46.4345 10.2052 46.154 10.3209 45.9441 10.5323L43.9449 12.5356L43.3201 11.9037C43.1103 11.6922 42.8309 11.5741 42.5338 11.5729C42.5327 11.5729 42.5303 11.5729 42.5291 11.5729C42.2333 11.5729 41.9551 11.6875 41.744 11.8966C41.3079 12.3301 41.3043 13.0388 41.737 13.4758L43.1492 14.9038Z" fill="#E30613"/>
<path d="M36.5184 24.0258H53.3565C53.9707 24.0258 54.4705 23.525 54.4705 22.9096C54.4705 22.2942 53.9707 21.7934 53.3565 21.7934H36.5184C35.9042 21.7934 35.4044 22.2942 35.4044 22.9096C35.4044 23.525 35.9042 24.0258 36.5184 24.0258Z" fill="#7C7C7D"/>
<path d="M54.4705 26.1614C54.4705 25.546 53.9707 25.0452 53.3565 25.0452H36.5184C35.9042 25.0452 35.4044 25.546 35.4044 26.1614C35.4044 26.7767 35.9042 27.2775 36.5184 27.2775H53.3565C53.9707 27.2775 54.4705 26.7767 54.4705 26.1614Z" fill="#7C7C7D"/>
</svg>

<svg width="68" height="65" viewBox="0 0 68 65" fill="none" xmlns="http://www.w3.org/2000/svg"><path d="M28.401 47.636c-.31 0-.614.126-.833.346a1.19 1.19 0 00-.346.835 1.184 1.184 0 001.179 1.181c.31 0 .614-.126.834-.346.219-.22.345-.524.345-.835a1.19 1.19 0 00-.345-.835 1.187 1.187 0 00-.834-.346z" fill="#7C7C7D"/><path d="M54.434 37.947v11.222a2.366 2.366 0 01-2.361 2.366H4.719a2.366 2.366 0 01-2.361-2.366V46.47h43.824a1.18 1.18 0 000-2.362H2.358v-3.322h8.997a1.18 1.18 0 000-2.362H2.358V16.578a2.366 2.366 0 012.36-2.366h26.38v-2.363H4.718A4.73 4.73 0 000 16.578v32.591a4.73 4.73 0 004.719 4.728H23.45v4.016h-2.824a4.258 4.258 0 00-4.249 4.257v1.649A1.18 1.18 0 0017.556 65h21.69c.65 0 1.179-.53 1.179-1.181v-1.65a4.258 4.258 0 00-4.248-4.256h-2.825v-4.016h18.72a4.728 4.728 0 004.718-4.728V37.947h-2.356zm-28.626 15.95h5.186v4.016h-5.186v-4.016zm10.368 6.378c1.043 0 1.891.85 1.891 1.895v.468H18.735v-.468c0-1.044.847-1.895 1.89-1.895h15.551z" fill="#7C7C7D"/><path d="M62.91 0H34.894c-2.66 0-4.823 2.145-4.823 4.779l-.178 24.307h-5.057c-.605 0-1.096.514-1.096 1.144v3.402c0 3.21 2.484 5.963 5.612 6.313v.072h24.426c3.495-.02 6.324-2.886 6.305-6.386V12.427h6.71c.604 0 1.096-.517 1.096-1.153V5.033C67.894 2.277 65.66.02 62.91 0zm-2.826 5.05c0-1.528 1.284-2.818 2.803-2.818h.016A2.796 2.796 0 0165.66 5.04v5.154h-5.577V5.05zM48.547 29.086H32.121l.178-24.3c0-1.408 1.164-2.555 2.594-2.555h23.852c-.585.866-.89 1.826-.89 2.819v28.581c0 2.29-1.83 4.154-4.081 4.154h-.012c-2.275-.016-4.121-1.885-4.116-4.165v-3.387a1.133 1.133 0 00-1.099-1.147zm.404 8.7H30.067c-2.26 0-4.099-1.865-4.099-4.155V31.32h21.45v2.3a6.42 6.42 0 001.533 4.167z" fill="#7C7C7D"/><path d="M40.394 18.059l3.616 2.476a1.099 1.099 0 001.25 0l3.606-2.476c1.367-.935 2.358-2.83 2.358-4.507V8.55a1.105 1.105 0 00-.605-1.013l-5.506-2.714a1.108 1.108 0 00-.978-.002l-5.503 2.71a1.106 1.106 0 00-.599 1.005v5.015c.002 1.679.994 3.573 2.361 4.508zm-.13-4.507V9.227l4.366-2.159 4.367 2.165v4.32c0 .93-.635 2.147-1.387 2.66l-2.989 2.049-2.976-2.048c-.748-.512-1.382-1.73-1.382-2.661z" fill="#7C7C7D"/><path d="M43.15 14.904c.206.21.493.333.794.334a1.12 1.12 0 00.786-.33l2.79-2.796a1.11 1.11 0 00.327-.79c0-.3-.116-.58-.327-.79a1.103 1.103 0 00-.787-.327h-.001c-.297 0-.578.116-.788.327l-2 2.004-.624-.632c-.21-.212-.49-.33-.786-.331h-.005c-.296 0-.574.114-.785.324a1.12 1.12 0 00-.007 1.579l1.412 1.428z" fill="#E30613"/><path d="M36.518 24.026h16.838a1.116 1.116 0 000-2.233H36.518a1.116 1.116 0 000 2.233zm17.952 2.135c0-.615-.5-1.116-1.114-1.116H36.518a1.116 1.116 0 000 2.232h16.838c.615 0 1.114-.5 1.114-1.116z" fill="#7C7C7D"/></svg>
